X:276
T:Jump At the Sun
C:John Kirkpatrick (?)
S:Cassette tape, many years ago
Z:Nigel Gatherer
M:6/8
L:1/8
K:Gm
z|GBd ^c2 d|GBd ^C2 d|gdd gdd|dcB A3|GBd ^c2 d|
GBd ^C2 d|gdd edc|BcA G2::d|gdd bag|add c'ba|bag bag|
a^fd e2 d|gdd bag|add c'ba|gdd edc|BcA G2:|
<end>
<start>
